public/svgs/duotone/line-columns.svg

<svg xmlns="http://www.w3.org/2000/svg" viewBox="0 0 512 512"><!-- Font Awesome Pro 6.0.0-alpha2 by @fontawesome - https://fontawesome.com License - https://fontawesome.com/license (Commercial License) --><defs><style>.fa-secondary{opacity:.4}</style></defs><path d="M480 288H320C302.326 288 288 302.326 288 320S302.326 352 320 352H480C497.674 352 512 337.674 512 320S497.674 288 480 288ZM480 416H320C302.326 416 288 430.326 288 448S302.326 480 320 480H480C497.674 480 512 465.674 512 448S497.674 416 480 416ZM480 160H320C302.326 160 288 174.326 288 192S302.326 224 320 224H480C497.674 224 512 209.674 512 192S497.674 160 480 160ZM320 96H480C497.674 96 512 81.674 512 64S497.674 32 480 32H320C302.326 32 288 46.326 288 64S302.326 96 320 96Z" class="fa-secondary"/><path d="M192 416H32C14.326 416 0 430.326 0 448S14.326 480 32 480H192C209.674 480 224 465.674 224 448S209.674 416 192 416ZM32 96H192C209.674 96 224 81.674 224 64S209.674 32 192 32H32C14.326 32 0 46.326 0 64S14.326 96 32 96ZM192 160H32C14.326 160 0 174.326 0 192S14.326 224 32 224H192C209.674 224 224 209.674 224 192S209.674 160 192 160ZM192 288H32C14.326 288 0 302.326 0 320S14.326 352 32 352H192C209.674 352 224 337.674 224 320S209.674 288 192 288Z" class="fa-primary"/></svg>

<svg xmlns="http://www.w3.org/2000/svg" viewBox="0 0 512 512"><!--! Font Awesome Pro 6.5.1 by @fontawesome - https://fontawesome.com License - https://fontawesome.com/license (Commercial License) Copyright 2023 Fonticons, Inc. --><defs><style>.fa-secondary{opacity:.4}</style></defs><path class="fa-secondary" d="M512 64c0-17.7-14.3-32-32-32H320c-17.7 0-32 14.3-32 32s14.3 32 32 32H480c17.7 0 32-14.3 32-32zm0 128c0-17.7-14.3-32-32-32H320c-17.7 0-32 14.3-32 32s14.3 32 32 32H480c17.7 0 32-14.3 32-32zM288 320c0 17.7 14.3 32 32 32H480c17.7 0 32-14.3 32-32s-14.3-32-32-32H320c-17.7 0-32 14.3-32 32zM512 448c0-17.7-14.3-32-32-32H320c-17.7 0-32 14.3-32 32s14.3 32 32 32H480c17.7 0 32-14.3 32-32z"/><path class="fa-primary" d="M224 64c0-17.7-14.3-32-32-32H32C14.3 32 0 46.3 0 64S14.3 96 32 96H192c17.7 0 32-14.3 32-32zm0 128c0-17.7-14.3-32-32-32H32c-17.7 0-32 14.3-32 32s14.3 32 32 32H192c17.7 0 32-14.3 32-32zM0 320c0 17.7 14.3 32 32 32H192c17.7 0 32-14.3 32-32s-14.3-32-32-32H32c-17.7 0-32 14.3-32 32zM224 448c0-17.7-14.3-32-32-32H32c-17.7 0-32 14.3-32 32s14.3 32 32 32H192c17.7 0 32-14.3 32-32z"/></svg>
